X:315
T: WILLST DU NICHTS VOM FREIEN HOEREN
N: Z0312
O: Europa, Mitteleuropa, Deutschland
R: Lyrisches Lied, Romanze, Liebes -, Ehestands - Lied
M: 3/2
L: 1/2
K: A
A2=c | B2d | =c2d | e2A |
=c2B | A2=c | B2e | B3 |
A2=c | B2d | =c2d | e2A |
=c2B | A2=c | B2e | B3 |
=c2d | e2=c | =f2e | d3 |
=c2e | B2e | =c2B | A3

@@@ Tune index: 10073
